X:73
T:Lord Hardwick's March by Mr Cook Dublin
S:John Moore's Book 2
Z:Transcribed by Peter Kanssen 30-04-21
%%VWML: Moore1-4494-p56-0
F:http://www.vwml.org/record/Moore2/4494/p56
M:C|
K:D
L:1/8
|:a>g |{g}f2 f>f f2f2 | f4 (d'a)af | {f}e2 e>e e2e2  | e3f g>ba>g | 
{g}f2 f>f f2f2 | f3a d'aaf | gbag fedc |d2 d>d d2 :|
|:a>a | a2 a>a a2 a>a | f2d2 a2 A>A | A2 A>A A2 A>A | F2D2 A2 a>a | 
 a2 A>A A2 a>a  | a2 A>A A2 a>a | aaaa-a4 | a2a2a2 a>g | 
{g}f2 f>f f2f2 | f4 {a}(d'a)af | {f}e2 e>e e2e2 | e3f gbag | 
{g}f2 f>f f2f2 | f3a (d'a)(af) | ebag fedc | d2d>d d2 :|

